X:468
T:
R:vals
S:Ur en gammal notbok tillhörande Gotlands fornsal.
O:Gotland
M:3/4
L:1/8
K:A
a2|d2 e2 e2|e4 ag|f2 f2 f2|f4 a2|(ef)(e^d)(ec)|A2 A2 (Bc)|(dB)(GE)(FG)|A4::e2|
=f2 e2 e2|B4 e2|(de)(dB)(cA)|(BG) E2 e2|(de)(fe)(ge)|(ae)(be)(c'a)|b2 (d'b)(c'a)|
c'4 b2|e4 a2|f4 a2|(ef)(ec)(Ac)|(BG) E2 a2|(ef)(ec)(Aa)|(fa)(fd)(Aa)|(ed)(cB)(AG)|A4::
K:D
AG|F2 F2 G2|E2 E2 F2|B,2 B,2 ED|(CD)(B,C) A,2|f2 (ag) e2|(gf) d2 (fe)|A2 B2 c2|d4:|

